X:168
T:Old Maid's Song - Langworthy
%%VWML:SBG-1-2-814-0
F:http://www.vwml.org/record/SBG/1/2/814
Z:Original Sibelius transcriptions by M. & S. Graebe
M:2/4
I:linebreak $
K:G
V:1 treble nm="P1"
V:1
 B B B d | c B A c | B A d d | B2 G2 | D D G B, | B, E D D | E E D D | E2 G3/2 F/4 E/4 |$ D2 B,2 | %9
 D D B,2 | E2 E3/2 D/ | E G F E | D D B B | c c A A | G2 F3/2 G/ | G4 | %16

